public/avatar/body/163.svg

<svg xmlns:xlink="http://www.w3.org/1999/xlink" height="82" width="84.85" xmlns="http://www.w3.org/2000/svg"><g transform="translate(37.4 42.25)"><use height="38" transform="translate(-11.95 -17.45)" width="32.05" xlink:href="#a"/><use height="36.7" transform="translate(7.5 -16.4)" width="12.6" xlink:href="#b"/><use height="38.95" transform="translate(-12.45 -17.95)" width="33.05" xlink:href="#c"/><use height="31.75" transform="translate(-18.6 -2.4)" width="45.8" xlink:href="#d"/></g><defs><path d="M27.35 7.4q2.15 4.15 3.55 8.75 1.45 4.7 1.15 9.5-.35 4.95-4.2 8.1-3.8 3.2-8.75 4.05l-2.6.2q-3.6 0-7.05-1.15-4.65-1.6-7.1-5.5Q-.2 27.4.05 23q.2-4.4 2-9.3Q3.85 8.75 7 5.05 10.1 1.3 14.7.1l1.8-.1q1.9.05 3.7.8 4.75 2.05 7.15 6.6" fill="#fcc" fill-rule="evenodd" transform="translate(-.05)" id="e"/><path d="m12.65-13.7.1.1q1.55 1.55 2.6 3.55Q17.5-5.9 18.9-1.3q1.45 4.7 1.15 9.5-.35 4.95-4.2 8.1-2.45 2.05-5.3 3.15l-3.05.85q1.45-4.45 2.25-5.5.75-1.1 1.75-6.35 1-5.3.3-11.9-.75-6.65-1.45-9.45l-1.6-3.5 1.05.55 2.85 2.15" fill="#ffaeae" fill-rule="evenodd" transform="translate(-7.5 16.4)" id="b"/><path d="M27.35 7.4Q24.95 2.85 20.2.8 17.55-.3 14.7.1 10.1 1.3 7 5.05q-3.15 3.7-4.95 8.65-1.8 4.9-2 9.3-.25 4.4 2.3 8.35 2.45 3.9 7.1 5.5 4.65 1.55 9.65.95 4.95-.85 8.75-4.05 3.85-3.15 4.2-8.1.3-4.8-1.15-9.5-1.4-4.6-3.55-8.75Z" fill="none" stroke="#f66" stroke-linecap="round" stroke-linejoin="round" transform="translate(.45 .5)" id="f"/><use height="38" width="32.05" xlink:href="#e" id="a"/><use height="38.95" width="33.05" xlink:href="#f" id="c"/><g id="d"><path d="m21.05 10.8.6 5.65h.15v.15h.05l.25 4.25-8.85 2.1-.05-2.45-9.3-1.7v-4.95 4.55q-8.35 1.55-15.05-3.25L-12.7 14v-.15l.05-.15.4-2.9h33.3M3.9 13.85l.55-1.25-.55-1.3v2.55" fill="#b80101" fill-rule="evenodd" transform="translate(18.6 2.4)"/><path d="m-13.55 20.35.55-4v.05l.3-2.4 1.55 1.15q6.7 4.8 15.05 3.25v.4l9.3 1.7.05 2.45q-1.4.7-2.85.8l-6.5.75v-5.7 5.7q-7.05-1.2-13.95-3.1l-3.5-1.05M3.9 11.3l.55 1.3-.55 1.25V11.3" fill="#c00" fill-rule="evenodd" transform="translate(18.6 2.4)"/><path d="m14.3 27.45-3.85 1.15v.05h-.1l-6.45.1q-11.15.85-16.75-7.05l-.7-1.35 3.5 1.05q6.9 1.9 13.95 3.1l6.5-.75q1.45-.1 2.85-.8l1.05 4.5M3.9 24.5v4.25-4.25m6.5 4.15.05-.05-.05.05" fill="#900" fill-rule="evenodd" transform="translate(18.6 2.4)"/><path d="m22.1 20.85.1 2.25q-2.4 2.75-5.9 3.9l-2 .45-1.05-4.5 8.85-2.1" fill="#690000" fill-rule="evenodd" transform="translate(18.6 2.4)"/><path d="m21.05 10.8.6 5.65m.15 0v.15m.05 0 .25 4.25.1 2.25q-2.4 2.75-5.9 3.9l-2 .45-3.85 1.15-.05.05h-.05l-6.45.1q-11.15.85-16.75-7.05l-.7-1.35.55-4m23.45 12.3h-.05M-13 16.4l.3-2.4v-.15m.05-.15.4-2.9M3.9 13.85v14.9m0-14.9V11.3" fill="none" stroke="#000" stroke-linecap="round" stroke-linejoin="round" transform="translate(18.6 2.4)"/><path d="M4.2 16.15 2.8 17.5l-3.6-2 .1 1.3-1.05-.4-.95-.75L-4.35 14l-.3 1.15-1.05-.45-.85-.55q-1.35-.7-2.3-2.15l-.9 1.55-.9-1.35-.55-1.05-.4-1.2-3 .95-.45-.85-.35-1-.25-1.5-1.85.15 1-3.7-1.6-.05q1.9-2.65 4.25-4l2.3-.95-1.15-.7 2.3-.1.55 2.4q.4 1.4 1.25 2.3l-1.7.3q-1.35 0-1.95 1.25-.8 1.55.45 3.05l1.8-.85 1.6 3.75L-7 8.75l.45 2.55 2.6 1.1 1.5-.85.15 1.5 6.5 3.1m-2.6-8.1q9.2 2.5 14.05-4.4l.7-.55-.45-.15.45.1L18.2 1.8l.15-.65.35-.35V.05l2.95 1.1-1.25.15 1.45 1.75-1.45.15 1 1.7-.5.7-1.9-.5 1.4 3.55-3.3-1.05-.2.5.4 1.7q-3.95-2.3-7.75.7-1.65-.35-3.05-1.25-3.75.75-4.9-1.2" fill="#cce4ff" fill-rule="evenodd" transform="translate(18.6 2.4)"/><path d="M18.7-1.9h2.55l-1.15.7L24.3.65l-.75.3 3.15 2.8-1.7.05 1.1 3.65-1.75-.15q.4.9.05 1.7L23 11.1l-1.4 1.2-.9.45-.6-1.05-1.7 1.6-2 1.3-.15-.6-2.4 1.9-1.05.5-.4-.75-2.1 1-2 .15-.3-.65-2.35 1.35-1.45-1.35-6.5-3.1-.15-1.5-1.5.85-2.6-1.1L-7 8.75l-1.4 1.65-1.6-3.75-1.8.85q-1.25-1.5-.45-3.05.6-1.25 1.95-1.25l1.7-.3q3.7 3.2 8.4 4.7l1.8.45Q2.75 10 6.5 9.25q1.4.9 3.05 1.25 3.8-3 7.75-.7l-.4-1.7.2-.5 3.3 1.05L19 5.1l1.9.5.5-.7-1-1.7 1.45-.15L20.4 1.3l1.25-.15L18.7.05V-1.9" fill="#fff" fill-rule="evenodd" transform="translate(18.6 2.4)"/><path d="M18.7-1.9h2.55l-1.15.7L24.3.65l-.75.3 3.15 2.8-1.7.05 1.1 3.65-1.75-.15q.4.9.05 1.7L23 11.1l-1.4 1.2-.9.45-.6-1.05-1.7 1.6-2 1.3-.15-.6-2.4 1.9-1.05.5-.4-.75-2.1 1-2 .15-.3-.65-2.35 1.35-1.45-1.35-1.4 1.35-3.6-2 .1 1.3-1.05-.4-.95-.75L-4.35 14l-.3 1.15-1.05-.45-.85-.55q-1.35-.7-2.3-2.15l-.9 1.55-.9-1.35-.55-1.05-.4-1.2-3 .95-.45-.85-.35-1-.25-1.5-1.85.15 1-3.7-1.6-.05q1.9-2.65 4.25-4l2.3-.95-1.15-.7 2.3-.1" fill="none" stroke="#84a9d9" stroke-linecap="round" stroke-linejoin="round" transform="translate(18.6 2.4)"/></g></defs></svg>

<?xml version="1.0" encoding="UTF-8" standalone="no"?>
<svg xmlns:xlink="http://www.w3.org/1999/xlink" height="82.0px" width="84.85px" xmlns="http://www.w3.org/2000/svg">
  <g transform="matrix(1.0, 0.0, 0.0, 1.0, 37.4, 42.25)">
    <use height="38.0" transform="matrix(1.0, 0.0, 0.0, 1.0, -11.95, -17.45)" width="32.05" xlink:href="#sprite0"/>
    <use height="36.7" transform="matrix(1.0, 0.0, 0.0, 1.0, 7.5, -16.4)" width="12.6" xlink:href="#shape1"/>
    <use height="38.95" transform="matrix(1.0, 0.0, 0.0, 1.0, -12.45, -17.95)" width="33.05" xlink:href="#sprite1"/>
    <use height="31.75" transform="matrix(1.0, 0.0, 0.0, 1.0, -18.6, -2.4)" width="45.8" xlink:href="#shape3"/>
  </g>
  <defs>
    <g id="sprite0" transform="matrix(1.0, 0.0, 0.0, 1.0, -0.05, 0.0)">
      <use height="38.0" transform="matrix(1.0, 0.0, 0.0, 1.0, 0.05, 0.0)" width="32.05" xlink:href="#shape0"/>
    </g>
    <g id="shape0" transform="matrix(1.0, 0.0, 0.0, 1.0, -0.05, 0.0)">
      <path d="M27.35 7.4 Q29.5 11.55 30.9 16.15 32.35 20.85 32.05 25.65 31.7 30.6 27.85 33.75 24.05 36.95 19.1 37.8 L16.5 38.0 Q12.9 38.0 9.45 36.85 4.8 35.25 2.35 31.35 -0.2 27.4 0.05 23.0 0.25 18.6 2.05 13.7 3.85 8.75 7.0 5.05 10.1 1.3 14.7 0.1 L16.5 0.0 Q18.4 0.05 20.2 0.8 24.95 2.85 27.35 7.4" fill="#ffcccc" fill-rule="evenodd" stroke="none"/>
    </g>
    <g id="shape1" transform="matrix(1.0, 0.0, 0.0, 1.0, -7.5, 16.4)">
      <path d="M12.65 -13.7 L12.75 -13.6 Q14.3 -12.05 15.35 -10.05 17.5 -5.9 18.9 -1.3 20.35 3.4 20.05 8.2 19.7 13.15 15.85 16.3 13.4 18.35 10.55 19.45 L7.5 20.3 Q8.95 15.85 9.75 14.8 10.5 13.7 11.5 8.45 12.5 3.15 11.8 -3.45 11.05 -10.1 10.35 -12.9 L8.75 -16.4 9.8 -15.85 12.65 -13.7" fill="#ffaeae" fill-rule="evenodd" stroke="none"/>
    </g>
    <g id="sprite1" transform="matrix(1.0, 0.0, 0.0, 1.0, 0.45, 0.5)">
      <use height="38.95" transform="matrix(1.0, 0.0, 0.0, 1.0, -0.45, -0.5)" width="33.05" xlink:href="#shape2"/>
    </g>
    <g id="shape2" transform="matrix(1.0, 0.0, 0.0, 1.0, 0.45, 0.5)">
      <path d="M27.35 7.4 Q24.95 2.85 20.2 0.8 17.55 -0.3 14.7 0.1 10.1 1.3 7.0 5.05 3.85 8.75 2.05 13.7 0.25 18.6 0.05 23.0 -0.2 27.4 2.35 31.35 4.8 35.25 9.45 36.85 14.1 38.4 19.1 37.8 24.05 36.95 27.85 33.75 31.7 30.6 32.05 25.65 32.35 20.85 30.9 16.15 29.5 11.55 27.35 7.4 Z" fill="none" stroke="#ff6666" stroke-linecap="round" stroke-linejoin="round" stroke-width="1.0"/>
    </g>
    <g id="shape3" transform="matrix(1.0, 0.0, 0.0, 1.0, 18.6, 2.4)">
      <path d="M21.05 10.8 L21.65 16.45 21.8 16.45 21.8 16.6 21.85 16.6 22.1 20.85 13.25 22.95 13.2 20.5 3.9 18.8 3.9 18.4 3.9 13.85 3.9 18.4 Q-4.45 19.95 -11.15 15.15 L-12.7 14.0 -12.7 13.85 -12.65 13.7 -12.25 10.8 21.05 10.8 M3.9 13.85 L4.45 12.6 3.9 11.3 3.9 13.85" fill="#b80101" fill-rule="evenodd" stroke="none"/>
      <path d="M-13.55 20.35 L-13.0 16.35 -13.0 16.4 -12.7 14.0 -11.15 15.15 Q-4.45 19.95 3.9 18.4 L3.9 18.8 13.2 20.5 13.25 22.95 Q11.85 23.65 10.4 23.75 L3.9 24.5 3.9 18.8 3.9 24.5 Q-3.15 23.3 -10.05 21.4 L-13.55 20.35 M3.9 11.3 L4.45 12.6 3.9 13.85 3.9 11.3" fill="#cc0000" fill-rule="evenodd" stroke="none"/>
      <path d="M14.3 27.45 L10.45 28.6 10.45 28.65 10.4 28.65 10.35 28.65 3.9 28.75 Q-7.25 29.6 -12.85 21.7 L-13.55 20.35 -10.05 21.4 Q-3.15 23.3 3.9 24.5 L10.4 23.75 Q11.85 23.65 13.25 22.95 L14.3 27.45 M3.9 24.5 L3.9 28.75 3.9 24.5 M10.4 28.65 L10.45 28.6 10.4 28.65" fill="#990000" fill-rule="evenodd" stroke="none"/>
      <path d="M22.1 20.85 L22.2 23.1 Q19.8 25.85 16.3 27.0 L14.3 27.45 13.25 22.95 22.1 20.85" fill="#690000" fill-rule="evenodd" stroke="none"/>
      <path d="M21.05 10.8 L21.65 16.45 M21.8 16.45 L21.8 16.6 M21.85 16.6 L22.1 20.85 22.2 23.1 Q19.8 25.85 16.3 27.0 L14.3 27.45 10.45 28.6 10.4 28.65 10.35 28.65 3.9 28.75 Q-7.25 29.6 -12.85 21.7 L-13.55 20.35 -13.0 16.35 M10.45 28.65 L10.4 28.65 M-13.0 16.4 L-12.7 14.0 -12.7 13.85 M-12.65 13.7 L-12.25 10.8 M3.9 13.85 L3.9 18.4 3.9 18.8 3.9 24.5 3.9 28.75 M3.9 13.85 L3.9 11.3" fill="none" stroke="#000000" stroke-linecap="round" stroke-linejoin="round" stroke-width="1.0"/>
      <path d="M4.2 16.15 L2.8 17.5 -0.8 15.5 -0.7 16.8 -1.75 16.4 -2.7 15.65 -4.35 14.0 -4.65 15.15 -5.7 14.7 -6.55 14.15 Q-7.9 13.45 -8.85 12.0 L-9.75 13.55 -10.65 12.2 -11.2 11.15 -11.6 9.95 -14.6 10.9 -15.05 10.05 -15.4 9.05 -15.65 7.55 -17.5 7.7 -16.5 4.0 -18.1 3.95 Q-16.2 1.3 -13.85 -0.05 L-11.55 -1.0 -12.7 -1.7 -10.4 -1.8 -9.85 0.6 Q-9.45 2.0 -8.6 2.9 L-10.3 3.2 Q-11.65 3.2 -12.25 4.45 -13.05 6.0 -11.8 7.5 L-10.0 6.65 -8.4 10.4 -7.0 8.75 -6.55 11.3 -3.95 12.4 -2.45 11.55 -2.3 13.05 4.2 16.15 M1.6 8.05 Q10.8 10.55 15.65 3.65 L16.35 3.1 15.9 2.95 16.35 3.05 18.2 1.8 18.35 1.15 18.7 0.8 18.7 0.05 21.65 1.15 20.4 1.3 21.85 3.05 20.4 3.2 21.4 4.9 20.9 5.6 19.0 5.1 20.4 8.65 17.1 7.6 16.9 8.1 17.3 9.8 Q13.35 7.5 9.55 10.5 7.9 10.15 6.5 9.25 2.75 10.0 1.6 8.05" fill="#cce4ff" fill-rule="evenodd" stroke="none"/>
      <path d="M18.7 -1.9 L21.25 -1.9 20.1 -1.2 24.3 0.65 23.55 0.95 26.7 3.75 25.0 3.8 26.1 7.45 24.35 7.3 Q24.75 8.2 24.4 9.0 L23.0 11.1 21.6 12.3 20.7 12.75 20.1 11.7 18.4 13.3 16.4 14.6 16.25 14.0 13.85 15.9 12.8 16.4 12.4 15.65 10.3 16.65 8.3 16.8 8.0 16.15 5.65 17.5 4.2 16.15 -2.3 13.05 -2.45 11.55 -3.95 12.4 -6.55 11.3 -7.0 8.75 -8.4 10.4 -10.0 6.65 -11.8 7.5 Q-13.05 6.0 -12.25 4.45 -11.65 3.2 -10.3 3.2 L-8.6 2.9 Q-4.9 6.1 -0.2 7.6 L1.6 8.05 Q2.75 10.0 6.5 9.25 7.9 10.15 9.55 10.5 13.35 7.5 17.3 9.8 L16.9 8.1 17.1 7.6 20.4 8.65 19.0 5.1 20.9 5.6 21.4 4.9 20.4 3.2 21.85 3.05 20.4 1.3 21.65 1.15 18.7 0.05 18.7 -1.9" fill="#ffffff" fill-rule="evenodd" stroke="none"/>
      <path d="M18.7 -1.9 L21.25 -1.9 20.1 -1.2 24.3 0.65 23.55 0.95 26.7 3.75 25.0 3.8 26.1 7.45 24.35 7.3 Q24.75 8.2 24.4 9.0 L23.0 11.1 21.6 12.3 20.7 12.75 20.1 11.7 18.4 13.3 16.4 14.6 16.25 14.0 13.85 15.9 12.8 16.4 12.4 15.65 10.3 16.65 8.3 16.8 8.0 16.15 5.65 17.5 4.2 16.15 2.8 17.5 -0.8 15.5 -0.7 16.8 -1.75 16.4 -2.7 15.65 -4.35 14.0 -4.65 15.15 -5.7 14.7 -6.55 14.15 Q-7.9 13.45 -8.85 12.0 L-9.75 13.55 -10.65 12.2 -11.2 11.15 -11.6 9.95 -14.6 10.9 -15.05 10.05 -15.4 9.05 -15.65 7.55 -17.5 7.7 -16.5 4.0 -18.1 3.95 Q-16.2 1.3 -13.85 -0.05 L-11.55 -1.0 -12.7 -1.7 -10.4 -1.8" fill="none" stroke="#84a9d9" stroke-linecap="round" stroke-linejoin="round" stroke-width="1.0"/>
    </g>
  </defs>
</svg>
